X: 141005
Q: "Irish Reel."
M: C
L: 1/8
K: G
uB2 |\
c2dc B2cB | AGAB AGEF | GAGE DEGB | AGAB AGEB |\
ccec BBdB | AGAB AGEF | GAGE DEGB | AGAB G2 |]
uD2 |\
gage dBGB | AGAB AGEF | GAGE DEGB | AGAB G2 |]


